X:1
T:A Major Oliver Holden, 1803
T:Unknown Author First pubished 1803 88. 88. 88.
T:Ordination Hymn No copyright. Transcribed from The Charlestown Collection, 1803.
%%score [ 1 2 3 4 ]
L:1/8
M:4/4
K:A
V:1 treble nm="Treble" snm="Tr."
V:2 treble nm="Counter" snm="C."
V:3 treble-8 nm="Tenor" snm="T."
V:4 bass nm="Bass" snm="B."
V:1
"^1. O  what a  happy,   happy    day,   When ancient saints were heard to say, \"To   Zion's  hill  let" A4 | %1
 c2 c2 A2 A2 | (d2 c2) B4 | c4 c4 | A2 A2 A2 A2 | G4 A4 | G6 e2 | f2 e2 e2 d2 | %8
"^1. us repair, To  Zion's  hill let   us        repair.\"    With   equal   joy  our  willing  feet Approach the con-se-" d2 c2 c2 e2 | %9
 d2 c2 B2 A2 | G6 G2 | A4 B4 | B2 G2 B2 G2 | G2 A2 B2 c2 | d2 c2 B2 A2 | %15
"^1. cra   -   ted seat,   And bow with humble reverence here,           And bow with humble reverence here." B6 A2 | %16
 G6 z2 | z8 | z8 | z8 | z4 z2 c2 | c6 B2 | c6 d2 | e4 d4 | c8 |] %25
V:2
"^2. Convened within this temple,  Lord,  Thy  glorious presence now  afford, And fill each heart with" C4 | %1
 E2 E2 E2 E2 | F4 E4 | E4 E4 | D2 D2 E2 F2 | E4 ^D4 | E6 z2 | z8 | %8
"^2. sacred love, And fill each heart with sacred love: This solemn rite with favor crown, And shed Thy promised" z8 | %9
 z8 | z8 | z4 E4 | E2 E2 E2 E2 | E2 E2 E2 E2 | E2 E2 E2 E2 | %15
"^2. blessing  down,   With  heavenly  influence  from  above,         With heavenly influence from above." F6 F2 | %16
 E6 z2 | z8 | z8 | z8 | z4 z2 E2 | E6 E2 | E6 D2 | E4 E4 | E8 |] %25
V:3
"^3. While now for Zion's peace we   pray,  O  let us hear our  Savior say, \"Thy prayers are heard, thy" A4 | %1
 A2 A2 c2 c2 | (B2 A2) G4 | A4 A4 | F2 F2 E2 F2 | G4 F4 | E6 z2 | z8 | %8
"^Thy prayers are heard, thy choice I own.\"                                                   And vie with all be -""^3. choice I own,                                                        Then shall Thy mourning church arise," z8 | %9
 z8 | z8 | z4 E4 | B2 B2 B2 e2 | B2 A2 G2 A2 | B2 c2 d2 e2 | %15
"^3. - low  the   skies,   In    grateful   songs  before   Thy throne,     In   grateful  songs  before  Thy throne." ^d6 d2 | %16
 e6 e2 | c6 A2 | B4 c4 | A4 G4 | F6 A2 | c6 d2 | e6 f2 | c4 B4 | A8 |] %25
V:4
 A,,4 | A,,2 A,,2 A,2 A,2 | D,4 E,4 | A,,4 A,,4 | D,2 D,2 C,2 D,2 | E,4 B,,4 | E,6 C2 | %7
 D2 C2 C2 B,2 | B,2 A,2 A,2 C2 | B,2 A,2 G,2 F,2 | E,6 E,2 | A,,4 E,4 | E,2 E,2 E,2 E,2 | %13
 E,2 E,2 E,2 A,2 | G,2 A,2 B,2 C2 | B,6 B,,2 | E,6 E,2 | A,6 A,2 | G,4 A,4 | C4 C,4 | F,6 A,2 | %21
 A,6 E,2 | A,6 D,2 | E,4 E,4 | A,,8 |] %25

